X:4229
T:Miss Casey. WM021
O:england
M:6/8
L:1/8
S:Wm.Mittell,1799
R:Jig
A:Kent
K:D
f|d2B BcB|A2A ABA|B2B BcB|g3-f2e|d2B BcB|A2A ABA|B2B BcB|d3f2:|
|:A||d2ef2g|a2ba2f|d2ef2g|a3f3|b2ga2f|g2ef2d|B2B BcB|g3-f2e:|]
